public/Html5.svg

<svg width="50" height="50" viewBox="0 0 50 50" fill="none" xmlns="http://www.w3.org/2000/svg">
<g clip-path="url(#clip0_150_129)">
<path d="M10.584 0H12.8382V2.22709H14.9007V0H17.1548V6.74167H14.9007V4.48542H12.8382V6.74167H10.5861L10.584 0ZM20.1173 2.23541H18.134V0H24.3569V2.23541H22.3714V6.74167H20.1173V2.23541ZM25.3444 0H27.6944L29.1402 2.36874L30.584 0H32.934V6.74167H30.6902V3.4L29.1402 5.79791H29.1007L27.5485 3.40209V6.74167H25.3444V0ZM34.0549 0H36.3111V4.51459H39.4778V6.74374H34.0549V0Z" fill="#1096E1"/>
<path fill-rule="evenodd" clip-rule="evenodd" d="M10.5125 45.9824L6.25 9.82617H43.75L39.4854 45.9782L24.9791 49.9991L10.5125 45.9824ZM19.1312 26.1907L18.7271 21.6491H35.6959L36.0917 17.2157H13.8833L15.0792 30.6262H30.4479L29.9333 36.3762L24.9876 37.7136H24.9833L20.0458 36.3803L19.7292 32.8449H15.275L15.8958 39.8074L24.9791 42.3283L34.0771 39.8074L35.1854 27.3824L35.2938 26.1929H19.1312V26.1907Z" fill="#1096E1"/>
</g>
<defs>
<clipPath id="clip0_150_129">
<rect width="50" height="50" fill="white"/>
</clipPath>
</defs>
</svg>

<svg xmlns="http://www.w3.org/2000/svg" width="50" height="50" fill="none" xmlns:v="https://vecta.io/nano"><g clip-path="url(#A)" fill="#1096e1"><path d="M10.584 0h2.254v2.227h2.063V0h2.254v6.742h-2.254V4.485h-2.062v2.256h-2.252L10.584 0zm9.533 2.235h-1.983V0h6.223v2.235h-1.985v4.506h-2.254V2.235zM25.344 0h2.35l1.446 2.369L30.584 0h2.35v6.742H30.69V3.4l-1.55 2.398h-.04l-1.552-2.396v3.34h-2.204V0zm8.711 0h2.256v4.515h3.167v2.229h-5.423V0z"/><path fill-rule="evenodd" d="M10.513 45.982L6.25 9.826h37.5l-4.265 36.152-14.506 4.021-14.467-4.017zm8.619-19.792l-.404-4.542h16.969l.396-4.433H13.883l1.196 13.411h15.369l-.515 5.75-4.946 1.337h-.004l-4.937-1.333-.317-3.535h-4.454l.621 6.962 9.083 2.521 9.098-2.521 1.108-12.425.108-1.189H19.131v-.002z"/></g><defs><clipPath id="A"><path fill="#fff" d="M0 0h50v50H0z"/></clipPath></defs></svg>
